src/cmd/32/deletecolumns.svg

<svg viewBox="0 0 32 32" xmlns="http://www.w3.org/2000/svg"><path d="m4 4v24h8v-1h-3v-7h3v-1h-3v-6h3v-1h-3v-7h3v-1zm17 0v1h3v7h-3v1h3v6h-3v1h3v7h-3v1h7v-24zm-16 1h3v7h-3zm20 0h2v7h-2zm-20 8h3v6h-3zm20 0h2v6h-2zm-20 7h3v7h-3zm20 0h2v7h-2z" fill="#232629"/><path d="m12 4v10 1 13h1 7 1v-13-1-10h-1-2.732422-1.535156-2.732422zm1 1h1.566406l-1.566406 1.3417969zm3.101562 0h3.13086l-6.232422 5.341797v-2.6835939l.324219-.2773437zm3.898438.6582031v2.6816407l-.326172.28125-6.27539 5.3789062-.398438.341797v-.341797-2.341797l.324219-.277344zm0 4v2.6816409l-.326172.28125-1.609375 1.378906-1.166015 1-3.898438 3.341797v-2.683594l.324219-.277344.445312-.380859 1.166016-1zm0 3.9999999v.341797 1 1.339844l-.326172.28125-6.673828 5.720703v-2.683594l.324219-.277344 5.111328-4.380859 1.03125-.884766.134765-.115234zm0 4v2.681641l-.326172.28125-6.673828 5.720703v-2.683594l.324219-.277344zm0 4v2.681641l-.326172.28125-2.77539 2.378906h-3.128907zm0 4v1.341797h-1.564453z" fill="#c7162b"/></svg>

<?xml version="1.0" encoding="UTF-8" standalone="no"?>
<svg
   xmlns:dc="http://purl.org/dc/elements/1.1/"
   xmlns:cc="http://creativecommons.org/ns#"
   xmlns:rdf="http://www.w3.org/1999/02/22-rdf-syntax-ns#"
   xmlns:svg="http://www.w3.org/2000/svg"
   xmlns="http://www.w3.org/2000/svg"
   xmlns:sodipodi="http://sodipodi.sourceforge.net/DTD/sodipodi-0.dtd"
   xmlns:inkscape="http://www.inkscape.org/namespaces/inkscape"
   viewBox="0 0 32 32"
   version="1.1"
   id="svg6"
   sodipodi:docname="deletecolumns.svg"
   inkscape:version="0.92.4 (5da689c313, 2019-01-14)">
  <metadata
     id="metadata12">
    <rdf:RDF>
      <cc:Work
         rdf:about="">
        <dc:format>image/svg+xml</dc:format>
        <dc:type
           rdf:resource="http://purl.org/dc/dcmitype/StillImage" />
      </cc:Work>
    </rdf:RDF>
  </metadata>
  <defs
     id="defs10" />
  <sodipodi:namedview
     pagecolor="#ffffff"
     bordercolor="#666666"
     borderopacity="1"
     objecttolerance="10"
     gridtolerance="10"
     guidetolerance="10"
     inkscape:pageopacity="0"
     inkscape:pageshadow="2"
     inkscape:window-width="1920"
     inkscape:window-height="1011"
     id="namedview8"
     showgrid="true"
     inkscape:zoom="14.75"
     inkscape:cx="-5.2780419"
     inkscape:cy="31.21429"
     inkscape:window-x="0"
     inkscape:window-y="32"
     inkscape:window-maximized="1"
     inkscape:current-layer="svg6">
    <inkscape:grid
       type="xygrid"
       id="grid822" />
  </sodipodi:namedview>
  <path
     d="m 4,6 v 20 c 0,2 1,2 3,2 h 5 V 27 H 9 v -7 h 3 V 19 H 9 v -6 h 3 V 12 H 9 V 5 h 3 V 4 H 7 C 5,4 4,4 4,6 Z M 21,4 v 1 h 3 v 7 h -3 v 1 h 3 v 6 h -3 v 1 h 3 v 7 h -3 v 1 h 4 c 2,0 3,0 3,-2 V 6 C 28,4 27,4 25,4 Z M 5,6 C 5,5 6,5 7,5 h 1 v 7 H 5 Z M 25,5 c 1,0 2,0 2,1 v 6 H 25 Z M 5,13 h 3 v 6 H 5 Z m 20,0 h 2 v 6 H 25 Z M 5,20 h 3 v 7 H 7 C 6,27 5,27 5,26 Z m 20,0 h 2 v 6 c 0,1 -1,1 -2,1 z"
     id="path2"
     inkscape:connector-curvature="0"
     style="fill:#232629"
     sodipodi:nodetypes="cccccccccccccccccccccccccccccccccccccccccccccccccccccccccccccccccccccc" />
  <path
     d="m12 4v10 1 13h1 7 1v-13-1-10h-1-2.732422-1.535156-2.732422zm1 1h1.566406l-1.566406 1.3417969zm3.101562 0h3.13086l-6.232422 5.341797v-2.6835939l.324219-.2773437zm3.898438.6582031v2.6816407l-.326172.28125-6.27539 5.3789062-.398438.341797v-.341797-2.341797l.324219-.277344zm0 4v2.6816409l-.326172.28125-1.609375 1.378906-1.166015 1-3.898438 3.341797v-2.683594l.324219-.277344.445312-.380859 1.166016-1zm0 3.9999999v.341797 1 1.339844l-.326172.28125-6.673828 5.720703v-2.683594l.324219-.277344 5.111328-4.380859 1.03125-.884766.134765-.115234zm0 4v2.681641l-.326172.28125-6.673828 5.720703v-2.683594l.324219-.277344zm0 4v2.681641l-.326172.28125-2.77539 2.378906h-3.128907zm0 4v1.341797h-1.564453z"
     fill="#762572"
     id="path4"
     style="fill:#c7162b;fill-opacity:1" />
</svg>
